X: 17
T:Great is Thy Faithfulness
% Nottingham Music Database
S:MHB 66 transposed
M:3/4
L:1/4
K:D
"D"FFF|"G"F3/2E/2E|"A"GGG|"D"GF2||"G"BcB|"D/f+"A3/2G/2F|"Bm"EF"E7"^G|\
"A"A3||
"A7"ABc|"D"d3/2c/2B|"D"AGF|"G"FE2||"E7/g+"Bcd|"D/a"d3/2A/2B|"A"FFE|\
"D"D3||
"A7"AAE|"D"G3/4F/4F2|"B7"BBF|"Em"A3/4G/4G2||
"A7"ABc|"D"dAB|"E7"cdB|"A"A3||"A7"ABc|"D"d3/2c/2B|"D"AGF|"G"FE2||
"E7"Bcd|"D/a"d3/2A/2A|"A7"FGC|"D"D3||


